X:151
T:Miss L.Montgomery of Skermorlies S’spey. RH.151
R:Strathspey
S:Rev.R.Harrison’s MS,c1815,Cumbria
O:England
A:Temple Sowerby,Cumbria
Z:vmp.Simon Wilson. Review PJH, 2008.
M:C
L:1/8
Q:1/2=60
K:D
F|D2D>d d2 c/B/A|BABd eEEF|\
D2D>d dcBA|B/c/d e/f/g fdd:|!
f/g/|g>da>f a>db>a|adaf geef/g/|\
a<da>f a<db>d|A>d {f}ed/e/ {e}fddf/g/|!
a>da>f adb>a|ada>f {de}feef/g/|\
D2Dd dcBA|B/c/d e/f/g fdd|]

